!!!OTL: Die Wise van Potteren.
!!!ARE: Europa, Mitteleuropa, Deutschland
!!!SCT: A0084
!!!TXL: @@DUM
!!!YEM: Copyright 1995, estate of Helmut Schaffrath.
**kern	**text
!! Mixed meters:  4/2; 6/2
*M4/2yy	*
*clefC3	*
*k[]	*
*a:aeo	*
=1	=1
!LO:TX:a:t=äol.	!
2ryy	.
{2e	Wie
2e	wil
2e	hoo-
=2	=2
*M6/2	*
2f	-ren
1e	een
2d	goet
1e	nieu
=3	=3
1d	liet,
2r}	.
{2e	van
2e	dat
2e	Thantwerpen
=4	=4
2f	.
1e	nu
2d	is
1e	ghe-
=5	=5
*M4/2	*
1d	-ſchiet,
2r}	.
{2d	al
=6	=6
2e	van
2e	dry
2e	Vrou-
2f	-kens
=7	=7
*lig	*
2g	ree-
4f	.
4e	.
1d	.
*Xlig	*
=8	=8
1c	-ne:
2r}	.
{2e	Sie
=9	=9
*M6/2	*
2f	hed-
2f	-den
2f	een
2e	cna-
2e	-pen
4e	van
4e	den
=10	=10
2d	huy-
2d	-ſe
2d	ſo
1A}	lief,
{2A	ſie_en
=11	=11
*M4/2	*
1G	lie-
1d	-ten
=12	=12
*M6/2	*
1c	hem
2f	niet
*lig	*
!LO:TX:a:t=P:in the source 12-13 as 1 measure:problem	!
1e	ſla-
4d	.
4c	.
=13-	=13-
1B	.
=|	=|
*Xlig	*
0A/ll}	-pen.
==	==
!!!GTL: Balladen und Romanzen (erzählende Volkslieder)
!!!AGN: Romanze, Ballade, Lied
!! Souterliedekens 1540 ad Ps. 149.
!!!ONB: ESAC (Essen Associative Code) Database: ALTDEU
!!!AMT: irregular
!!!AIN: vox
!!!EED: Helmut Schaffrath
!!!EEV: 1.0
!!!RDF**kern: l = terminal long
!!!AMD: Aeolian
!!!URL-scan: https://rosdok.uni-rostock.de/mcrviewer/recordIdentifier/rosdok_ppn738218359/iview2/phys_0245.iview2?x=-425.8853427895981&y=2005.2822695116047&scale=0.4823261117445838&rotation=0&layout=singlePageLayout
!!!ENC: Anna Maria Matuszewska
!!!EEV: 2024/22/02
*-	*-
